X:1
T:Jute Mill, or Oh Dear Me
M:4/4
L:1/8
K:G
 D2 E2 D3 C| D2 D/2- G3/2 G2- G3/2 B/2| c2 B2 A G3| BA GE D4| d3 e d2 c2|\
B-AG-E c3 d| BA GD E2 AG| E2 D2 D4| D2 E2 D3 B| cB GE D4| c/2 c3/2 BA BA GA|\
B-AG-E D4| dd de d c3| B2 AG c3 d| BA GD E/2 E3/2 AG| E2 D2 D4| D2 E2 D3 B,|\
 D2 E3/2 G/2 G B3| cc BA G A2 B| cB AG E D2 d| dd de d B3| B2 AG c3 d|\
 BA GD E/2 E3/2 AG| E2 D2 D4|
